images/zhuyin/32.svg

<svg width="50" height="50" viewBox="0 0 50 50" fill="none" xmlns="http://www.w3.org/2000/svg">
<path d="M30.25 15.7812C30.5156 15.7812 30.875 16.0234 31.3281 16.5078C31.8594 17.0078 32.125 17.3906 32.125 17.6562C32.125 18.2812 32 18.6562 31.75 18.7812C31.375 19.0312 31.0625 19.4688 30.8125 20.0938C30.125 21.6094 29.5 22.8594 28.9375 23.8438C28.3125 24.9688 27.7188 25.9141 27.1562 26.6797C28.9219 27.6484 30.3984 28.6016 31.5859 29.5391C31.9766 29.8672 32.3125 30.3828 32.5938 31.0859C32.7812 31.8984 32.875 32.4844 32.875 32.8438C32.875 33.1719 32.7578 33.3359 32.5234 33.3359C32.2578 33.3359 31.875 33.1094 31.375 32.6562C29.9375 31.2344 28.1406 29.6953 25.9844 28.0391C25.0938 28.9453 24.0469 29.8594 22.8438 30.7812C21.6562 31.6562 20.3438 32.4375 18.9062 33.125C18.0938 33.5 17.4688 33.6875 17.0312 33.6875C16.9219 33.6875 16.8594 33.6562 16.8438 33.5938C16.875 33.5938 16.9688 33.5234 17.125 33.3828C19.0469 32.2734 20.6406 31.1562 21.9062 30.0312C22.9062 29.0156 23.8047 28.0078 24.6016 27.0078C22.9297 25.7891 21.4688 24.8594 20.2188 24.2188C20.0312 24.1562 19.9375 24.0938 19.9375 24.0312C19.9375 23.9062 20 23.8438 20.125 23.8438C20.5938 23.8438 21.2734 24.0156 22.1641 24.3594C23.0859 24.6719 24.1875 25.1562 25.4688 25.8125C25.75 25.4219 26.0078 25.0391 26.2422 24.6641C27.1016 23.3359 27.8359 21.9453 28.4453 20.4922C29.0234 19.1172 29.3125 18.2656 29.3125 17.9375C29.3125 17.75 29.25 17.6562 29.125 17.6562C28.5156 17.6562 27.3984 17.9297 25.7734 18.4766C24.3984 18.9141 23.2344 19.3672 22.2812 19.8359C22.1406 19.9453 22.0156 20 21.9062 20C21.3906 20 20.7266 19.8281 19.9141 19.4844C19.0547 19.1562 18.625 18.9219 18.625 18.7812C18.625 18.6562 18.75 18.5938 19 18.5938C19.875 18.5938 21.8125 18.25 24.8125 17.5625C27.4375 16.9531 29.0078 16.4453 29.5234 16.0391C29.8359 15.8672 30.0781 15.7812 30.25 15.7812Z" fill="#333333"/>
<path d="M31.3281 16.5078L30.963 16.8494L30.9739 16.861L30.9854 16.8719L31.3281 16.5078ZM31.75 18.7812L31.5264 18.334L31.4986 18.348L31.4727 18.3652L31.75 18.7812ZM30.8125 20.0938L31.2678 20.3003L31.2725 20.29L31.2767 20.2794L30.8125 20.0938ZM28.9375 23.8438L28.5033 23.5957L28.5004 23.6009L28.9375 23.8438ZM27.1562 26.6797L26.7533 26.3836L26.4154 26.8435L26.9157 27.118L27.1562 26.6797ZM31.5859 29.5391L31.9075 29.1562L31.9017 29.1513L31.8958 29.1466L31.5859 29.5391ZM32.5938 31.0859L33.0809 30.9735L33.0723 30.936L33.058 30.9002L32.5938 31.0859ZM31.375 32.6562L31.0234 33.0117L31.0311 33.0194L31.0392 33.0267L31.375 32.6562ZM25.9844 28.0391L26.289 27.6425L25.938 27.3729L25.6278 27.6886L25.9844 28.0391ZM22.8438 30.7812L23.1404 31.1838L23.1479 31.1781L22.8438 30.7812ZM18.9062 33.125L19.1158 33.579L19.122 33.5761L18.9062 33.125ZM16.8438 33.5938V33.0938H16.2034L16.3587 33.715L16.8438 33.5938ZM17.125 33.3828L16.875 32.9498L16.8296 32.976L16.7905 33.0112L17.125 33.3828ZM21.9062 30.0312L22.2384 30.405L22.2509 30.3939L22.2625 30.3821L21.9062 30.0312ZM24.6016 27.0078L24.9926 27.3194L25.3179 26.9112L24.8961 26.6038L24.6016 27.0078ZM20.2188 24.2188L20.4468 23.7738L20.4129 23.7564L20.3769 23.7444L20.2188 24.2188ZM22.1641 24.3594L21.984 24.8258L21.9937 24.8296L22.0035 24.8329L22.1641 24.3594ZM25.4688 25.8125L25.2408 26.2575L25.6234 26.4535L25.8745 26.1047L25.4688 25.8125ZM26.2422 24.6641L25.8224 24.3924L25.8182 24.3991L26.2422 24.6641ZM28.4453 20.4922L27.9844 20.2984L27.9842 20.2988L28.4453 20.4922ZM25.7734 18.4766L25.9251 18.9531L25.9329 18.9504L25.7734 18.4766ZM22.2812 19.8359L22.0606 19.3873L22.0147 19.4098L21.9743 19.4413L22.2812 19.8359ZM19.9141 19.4844L20.1089 19.0239L20.1007 19.0204L20.0924 19.0173L19.9141 19.4844ZM24.8125 17.5625L24.9242 18.0499L24.9256 18.0495L24.8125 17.5625ZM29.5234 16.0391L29.2825 15.601L29.2464 15.6208L29.214 15.6463L29.5234 16.0391ZM30.25 16.2812C30.2384 16.2812 30.2949 16.2802 30.4393 16.3775C30.5759 16.4696 30.7501 16.6218 30.963 16.8494L31.6933 16.1662C31.453 15.9094 31.2209 15.6984 30.9982 15.5483C30.7833 15.4034 30.5272 15.2812 30.25 15.2812V16.2812ZM30.9854 16.8719C31.2382 17.1098 31.4099 17.3035 31.515 17.455C31.6284 17.6184 31.625 17.6768 31.625 17.6562H32.625C32.625 17.3701 32.4888 17.1043 32.3366 16.8849C32.176 16.6535 31.9493 16.4058 31.6708 16.1437L30.9854 16.8719ZM31.625 17.6562C31.625 17.9424 31.5955 18.1324 31.5569 18.2481C31.5188 18.3625 31.491 18.3518 31.5264 18.334L31.9736 19.2285C32.259 19.0857 32.4187 18.825 32.5056 18.5644C32.592 18.3051 32.625 17.9951 32.625 17.6562H31.625ZM31.4727 18.3652C30.9814 18.6927 30.6183 19.2328 30.3483 19.9081L31.2767 20.2794C31.5067 19.7047 31.7686 19.3698 32.0273 19.1973L31.4727 18.3652ZM30.3572 19.8872C29.6734 21.3946 29.0555 22.6295 28.5034 23.5957L29.3716 24.0918C29.9445 23.0893 30.5766 21.8242 31.2678 20.3003L30.3572 19.8872ZM28.5004 23.6009C27.8823 24.7135 27.2998 25.6398 26.7533 26.3836L27.5592 26.9757C28.1377 26.1884 28.7427 25.224 29.3746 24.0866L28.5004 23.6009ZM26.9157 27.118C28.6645 28.0775 30.1162 29.0158 31.2761 29.9315L31.8958 29.1466C30.6807 28.1874 29.1793 27.2194 27.3968 26.2413L26.9157 27.118ZM31.2643 29.9219C31.5687 30.1776 31.8652 30.6108 32.1295 31.2716L33.058 30.9002C32.7598 30.1549 32.3844 29.5568 31.9075 29.1562L31.2643 29.9219ZM32.1066 31.1984C32.2937 32.0095 32.375 32.5465 32.375 32.8438H33.375C33.375 32.4222 33.2688 31.7874 33.0809 30.9735L32.1066 31.1984ZM32.375 32.8438C32.375 32.8976 32.37 32.929 32.3666 32.9433C32.3633 32.9574 32.3637 32.9454 32.3802 32.9223C32.399 32.8961 32.4286 32.8695 32.4658 32.8521C32.5004 32.8359 32.5239 32.8359 32.5234 32.8359V33.8359C32.772 33.8359 33.0253 33.7396 33.194 33.5035C33.3405 33.2984 33.375 33.0522 33.375 32.8438H32.375ZM32.5234 32.8359C32.5269 32.8359 32.5099 32.8364 32.4672 32.8214C32.4249 32.8067 32.3669 32.7802 32.2918 32.7357C32.1401 32.646 31.9472 32.5 31.7108 32.2858L31.0392 33.0267C31.3028 33.2656 31.5513 33.4595 31.7824 33.5963C32.0048 33.7279 32.2594 33.8359 32.5234 33.8359V32.8359ZM31.7266 32.3008C30.2703 30.8602 28.4565 29.3075 26.289 27.6425L25.6798 28.4356C27.8248 30.0832 29.6047 31.6085 31.0234 33.0117L31.7266 32.3008ZM25.6278 27.6886C24.7563 28.5753 23.7276 29.4741 22.5396 30.3844L23.1479 31.1781C24.3661 30.2447 25.4312 29.3153 26.341 28.3895L25.6278 27.6886ZM22.5472 30.3787C21.387 31.2336 20.1018 31.999 18.6905 32.6739L19.122 33.5761C20.5857 32.876 21.9255 32.0789 23.1403 31.1838L22.5472 30.3787ZM18.6967 32.671C17.8953 33.0409 17.3539 33.1875 17.0312 33.1875V34.1875C17.5836 34.1875 18.2922 33.9591 19.1158 33.579L18.6967 32.671ZM17.0312 33.1875C17.0147 33.1875 17.0595 33.1836 17.126 33.2168C17.1631 33.2354 17.208 33.2662 17.2484 33.3147C17.2895 33.364 17.3155 33.4193 17.3288 33.4725L16.3587 33.715C16.4051 33.9009 16.5294 34.0366 16.6787 34.1113C16.8077 34.1758 16.9384 34.1875 17.0312 34.1875V33.1875ZM16.8438 34.0938C16.9942 34.0938 17.1071 34.0259 17.124 34.0164C17.1668 33.9923 17.206 33.9646 17.2375 33.941C17.3021 33.8926 17.3775 33.8283 17.4595 33.7545L16.7905 33.0112C16.7163 33.078 16.6666 33.1192 16.6375 33.141C16.6221 33.1526 16.6223 33.1513 16.6338 33.1448C16.6396 33.1415 16.6569 33.132 16.6828 33.1223C16.6963 33.1172 16.716 33.1107 16.7406 33.1051C16.7647 33.0997 16.8002 33.0938 16.8438 33.0938V34.0938ZM17.375 33.8158C19.3177 32.6944 20.9411 31.5582 22.2384 30.405L21.5741 29.6575C20.3402 30.7543 18.776 31.8524 16.875 32.9498L17.375 33.8158ZM22.2625 30.3821C23.2734 29.3554 24.1837 28.3345 24.9926 27.3194L24.2105 26.6962C23.4257 27.6811 22.5391 28.6759 21.55 29.6804L22.2625 30.3821ZM24.8961 26.6038C23.212 25.3761 21.7281 24.4304 20.4468 23.7738L19.9907 24.6637C21.2094 25.2883 22.6473 26.202 24.307 27.4119L24.8961 26.6038ZM20.3769 23.7444C20.2987 23.7184 20.2774 23.7038 20.2852 23.709C20.2899 23.7121 20.3213 23.7331 20.3551 23.7781C20.3918 23.8271 20.4375 23.9141 20.4375 24.0312H19.4375C19.4375 24.3279 19.6534 24.4896 19.7305 24.541C19.832 24.6087 19.9513 24.6566 20.0606 24.6931L20.3769 23.7444ZM20.4375 24.0312C20.4375 24.0458 20.4335 24.1486 20.3379 24.2442C20.2423 24.3398 20.1396 24.3438 20.125 24.3438V23.3438C19.9854 23.3438 19.7889 23.379 19.6308 23.5371C19.4727 23.6952 19.4375 23.8917 19.4375 24.0312H20.4375ZM20.125 24.3438C20.4965 24.3438 21.1038 24.4861 21.984 24.8258L22.3441 23.8929C21.443 23.5451 20.691 23.3438 20.125 23.3438V24.3438ZM22.0035 24.8329C22.8942 25.1348 23.9721 25.6077 25.2408 26.2575L25.6967 25.3675C24.4029 24.7048 23.2777 24.2089 22.3246 23.8858L22.0035 24.8329ZM25.8745 26.1047C26.1616 25.7059 26.4256 25.3141 26.6662 24.9291L25.8182 24.3991C25.5901 24.764 25.3384 25.1378 25.063 25.5203L25.8745 26.1047ZM26.662 24.9357C27.5373 23.5828 28.2856 22.166 28.9064 20.6856L27.9842 20.2988C27.3863 21.7246 26.6658 23.089 25.8224 24.3924L26.662 24.9357ZM28.9062 20.686C29.1973 19.9937 29.4192 19.4248 29.5692 18.983C29.7108 18.5658 29.8125 18.196 29.8125 17.9375H28.8125C28.8125 18.0072 28.7697 18.2271 28.6222 18.6615C28.4831 19.0713 28.2714 19.6157 27.9844 20.2984L28.9062 20.686ZM29.8125 17.9375C29.8125 17.804 29.7931 17.6164 29.6817 17.4492C29.5463 17.2462 29.3332 17.1562 29.125 17.1562V18.1562C29.0935 18.1562 29.0416 18.1501 28.9834 18.121C28.9232 18.0909 28.8785 18.0473 28.8496 18.0039C28.8006 17.9305 28.8125 17.8835 28.8125 17.9375H29.8125ZM29.125 17.1562C28.4214 17.1562 27.2288 17.4592 25.614 18.0027L25.9329 18.9504C27.568 18.4002 28.6098 18.1562 29.125 18.1562V17.1562ZM25.6218 18.0001C24.2309 18.4427 23.0423 18.9045 22.0606 19.3873L22.5019 20.2846C23.4264 19.8299 24.5659 19.3855 25.925 18.953L25.6218 18.0001ZM21.9743 19.4413C21.9274 19.4778 21.8966 19.4944 21.8816 19.5009C21.8672 19.5072 21.8771 19.5 21.9062 19.5V20.5C22.1776 20.5 22.4108 20.3686 22.5882 20.2306L21.9743 19.4413ZM21.9062 19.5C21.489 19.5 20.8974 19.3575 20.1089 19.0239L19.7192 19.9449C20.5557 20.2988 21.2923 20.5 21.9062 20.5V19.5ZM20.0924 19.0173C19.6689 18.8556 19.3716 18.7244 19.1867 18.6236C19.092 18.5719 19.048 18.5395 19.0343 18.5276C19.0278 18.5219 19.0433 18.5338 19.0635 18.5645C19.0831 18.5945 19.125 18.6702 19.125 18.7812H18.125C18.125 18.9275 18.1803 19.0413 18.2268 19.1123C18.2738 19.184 18.3296 19.2399 18.3768 19.281C18.4706 19.3629 18.5877 19.4359 18.7078 19.5014C18.9526 19.635 19.2999 19.7851 19.7357 19.9515L20.0924 19.0173ZM19.125 18.7812C19.125 18.8375 19.1095 18.909 19.0645 18.9766C19.0215 19.041 18.9704 19.0738 18.9424 19.0878C18.9162 19.1009 18.904 19.101 18.9181 19.0987C18.9309 19.0965 18.957 19.0938 19 19.0938V18.0938C18.8495 18.0938 18.6621 18.1099 18.4951 18.1934C18.4046 18.2387 18.3066 18.3106 18.2324 18.4219C18.1561 18.5363 18.125 18.6625 18.125 18.7812H19.125ZM19 19.0938C19.943 19.0938 21.9401 18.7337 24.9242 18.0499L24.7008 17.0751C21.6849 17.7663 19.807 18.0938 19 18.0938V19.0938ZM24.9256 18.0495C26.2444 17.7434 27.3086 17.4604 28.1128 17.2004C28.8941 16.9477 29.4964 16.6969 29.8329 16.4318L29.214 15.6463C29.0349 15.7875 28.5942 15.9937 27.8051 16.2489C27.0391 16.4966 26.0056 16.7722 24.6994 17.0755L24.9256 18.0495ZM29.7644 16.4772C30.0664 16.3111 30.2132 16.2812 30.25 16.2812V15.2812C29.9431 15.2812 29.6054 15.4233 29.2825 15.601L29.7644 16.4772Z" fill="#333333"/>
</svg>

<svg xmlns="http://www.w3.org/2000/svg" width="50" height="50" fill="none"><path fill="#333" d="M30.25 15.781c.266 0 .625.242 1.078.727.531.5.797.883.797 1.148 0 .625-.125 1-.375 1.125-.375.25-.688.688-.938 1.313-.687 1.515-1.312 2.765-1.875 3.75-.625 1.125-1.218 2.07-1.78 2.836 1.765.968 3.241 1.922 4.429 2.86.39.327.727.843 1.008 1.546.187.812.281 1.398.281 1.758 0 .328-.117.492-.352.492-.265 0-.648-.227-1.148-.68-1.438-1.422-3.234-2.96-5.39-4.617-.891.906-1.938 1.82-3.141 2.742a24.265 24.265 0 0 1-3.938 2.344c-.812.375-1.437.563-1.875.563-.11 0-.172-.032-.187-.094.031 0 .125-.07.281-.211 1.922-1.11 3.516-2.227 4.781-3.352 1-1.015 1.899-2.023 2.696-3.023-1.672-1.219-3.133-2.149-4.383-2.79-.188-.062-.282-.124-.282-.187 0-.125.063-.187.188-.187.469 0 1.148.172 2.04.515.92.313 2.023.797 3.304 1.453.281-.39.539-.773.773-1.148a26.608 26.608 0 0 0 2.203-4.172c.578-1.375.867-2.226.867-2.555 0-.187-.062-.28-.187-.28-.61 0-1.727.273-3.352.82-1.375.437-2.539.89-3.492 1.359-.14.11-.265.164-.375.164-.515 0-1.18-.172-1.992-.516-.86-.328-1.289-.562-1.289-.703 0-.125.125-.187.375-.187.875 0 2.813-.344 5.813-1.032 2.625-.609 4.195-1.117 4.71-1.523.313-.172.555-.258.727-.258Z"/><path fill="#333" d="m31.328 16.508-.365.341.01.012.012.01.343-.363Zm.422 2.273-.224-.447-.027.014-.026.017.277.416Zm-.938 1.313.456.206.005-.01.004-.01-.465-.186Zm-1.875 3.75-.434-.248-.003.005.438.243Zm-1.78 2.836-.404-.296-.338.46.5.274.241-.438Zm4.429 2.86.322-.384-.006-.005-.006-.004-.31.392Zm1.008 1.546.487-.112-.009-.038-.014-.036-.464.186Zm-1.219 1.57-.352.356.008.007.008.008.336-.37Zm-5.39-4.617.304-.397-.351-.27-.31.317.356.35Zm-3.141 2.742.296.403.008-.006-.304-.397Zm-3.938 2.344.21.454.006-.003-.216-.451Zm-2.062.469v-.5h-.64l.155.621.485-.121Zm.281-.211-.25-.433-.045.026-.04.035.335.372Zm4.781-3.352.332.374.013-.011.011-.012-.356-.35Zm2.696-3.023.39.311.326-.408-.422-.307-.294.404Zm-4.383-2.79.228-.444-.034-.018-.036-.012-.158.475Zm1.945.141-.18.467.01.004.01.003.16-.474Zm3.305 1.453-.228.445.382.196.252-.348-.406-.293Zm.773-1.148-.42-.272-.004.007.424.265Zm2.203-4.172-.46-.194.46.194Zm-2.672-2.015.152.476.008-.003-.16-.473Zm-3.492 1.359-.22-.449-.046.023-.04.031.306.395Zm-2.367-.352.195-.46-.008-.004-.009-.003-.178.467Zm4.898-1.922.112.488h.002l-.113-.488Zm4.711-1.523-.24-.438-.037.02-.032.025.31.393Zm.727.242c-.012 0 .045 0 .19.097.136.092.31.244.523.471l.73-.683a4.23 4.23 0 0 0-.695-.618c-.215-.145-.47-.267-.748-.267v1Zm.735.59c.253.239.425.433.53.584.113.163.11.222.11.201h1c0-.286-.136-.552-.288-.771a4.908 4.908 0 0 0-.666-.741l-.686.728Zm.64.785c0 .286-.03.476-.068.592-.038.114-.066.104-.03.086l.447.895c.285-.143.445-.404.532-.665.086-.259.119-.569.119-.908h-1Zm-.152.71c-.492.327-.855.867-1.125 1.542l.929.371c.23-.574.492-.91.75-1.082l-.554-.832Zm-1.116 1.521c-.684 1.508-1.302 2.742-1.854 3.709l.869.496c.573-1.003 1.205-2.268 1.896-3.792l-.91-.413ZM28.5 23.601c-.618 1.113-1.2 2.039-1.747 2.783l.806.592c.579-.788 1.184-1.752 1.816-2.89l-.875-.485Zm-1.584 3.517c1.748.96 3.2 1.898 4.36 2.814l.62-.785c-1.215-.96-2.717-1.928-4.5-2.906l-.48.877Zm4.348 2.804c.305.256.601.689.866 1.35l.928-.372c-.298-.745-.674-1.343-1.15-1.744l-.644.766Zm.843 1.276c.187.812.268 1.349.268 1.646h1c0-.422-.106-1.057-.294-1.87l-.974.224Zm.268 1.646a.454.454 0 0 1-.008.1c-.004.013-.003.001.013-.022a.224.224 0 0 1 .086-.07c.034-.016.058-.016.057-.016v1a.801.801 0 0 0 .671-.332c.146-.206.181-.452.181-.66h-1Zm.148-.008c.004 0-.013 0-.056-.015a1.001 1.001 0 0 1-.175-.085 3.79 3.79 0 0 1-.581-.45l-.672.74c.264.24.512.433.743.57.223.132.477.24.741.24v-1Zm-.796-.535c-1.457-1.44-3.27-2.994-5.438-4.659l-.61.794c2.146 1.647 3.926 3.172 5.344 4.576l.704-.711Zm-6.1-4.612c-.87.886-1.9 1.785-3.087 2.695l.608.794a30.372 30.372 0 0 0 3.193-2.788l-.713-.701Zm-3.08 2.69a23.76 23.76 0 0 1-3.857 2.295l.432.902a24.769 24.769 0 0 0 4.018-2.392l-.593-.805Zm-3.85 2.292c-.802.37-1.343.517-1.666.517v1c.553 0 1.261-.229 2.085-.609l-.42-.908Zm-1.666.517c-.016 0 .029-.004.095.029a.398.398 0 0 1 .203.256l-.97.242c.046.186.17.322.32.396.129.065.26.077.352.077v-1Zm-.187.906c.15 0 .263-.068.28-.078.043-.024.082-.051.114-.075.064-.048.14-.113.221-.187l-.668-.743a2.465 2.465 0 0 1-.154.13c-.015.012-.015.01-.003.004a.345.345 0 0 1 .107-.04.472.472 0 0 1 .103-.011v1Zm.531-.278c1.943-1.122 3.566-2.258 4.863-3.411l-.664-.748c-1.234 1.097-2.798 2.195-4.699 3.293l.5.866Zm4.887-3.434a39.22 39.22 0 0 0 2.73-3.063l-.782-.623a38.202 38.202 0 0 1-2.66 2.984l.712.702Zm2.634-3.778c-1.684-1.228-3.168-2.174-4.45-2.83l-.455.89c1.218.624 2.656 1.538 4.316 2.748l.59-.808Zm-4.52-2.86c-.077-.026-.099-.04-.09-.035a.297.297 0 0 1 .07.07.423.423 0 0 1 .081.252h-1c0 .297.216.459.293.51a1.4 1.4 0 0 0 .33.152l.317-.949Zm.061.287a.319.319 0 0 1-.1.213.318.318 0 0 1-.212.1v-1a.688.688 0 0 0-.494.193.687.687 0 0 0-.194.494h1Zm-.312.313c.372 0 .979.142 1.859.482l.36-.933c-.901-.348-1.653-.55-2.219-.55v1Zm1.878.489c.891.302 1.97.775 3.238 1.425l.456-.89c-1.294-.663-2.42-1.16-3.372-1.482l-.322.947Zm3.872 1.272c.287-.4.55-.79.791-1.176l-.848-.53c-.228.365-.48.739-.755 1.121l.812.585Zm.787-1.17a27.111 27.111 0 0 0 2.244-4.25l-.922-.386a26.1 26.1 0 0 1-2.162 4.093l.84.544Zm2.244-4.249c.291-.692.513-1.261.663-1.703.142-.417.244-.787.244-1.046h-1c0 .07-.043.29-.19.724-.14.41-.352.955-.639 1.637l.922.388Zm.907-2.748a.873.873 0 0 0-.131-.489.657.657 0 0 0-.557-.293v1a.349.349 0 0 1-.275-.152c-.05-.073-.038-.12-.038-.066h1Zm-.688-.782c-.704 0-1.896.303-3.511.847l.319.947c1.635-.55 2.677-.794 3.192-.794v-1ZM25.622 18c-1.391.443-2.58.904-3.561 1.387l.44.898c.925-.455 2.065-.9 3.424-1.332L25.622 18Zm-3.648 1.441a.465.465 0 0 1-.092.06c-.015.006-.005-.001.024-.001v1c.272 0 .505-.131.682-.27l-.614-.789Zm-.068.059c-.417 0-1.009-.142-1.797-.476l-.39.92c.837.355 1.573.556 2.187.556v-1Zm-1.814-.483a8.005 8.005 0 0 1-.905-.393.982.982 0 0 1-.153-.096c-.006-.006.01.006.03.037.02.03.061.105.061.216h-1c0 .146.055.26.102.331a.828.828 0 0 0 .15.169c.094.082.21.155.33.22a8.88 8.88 0 0 0 1.029.45l.356-.934Zm-.967-.236a.357.357 0 0 1-.183.307c-.026.013-.038.013-.024.01a.52.52 0 0 1 .082-.004v-1c-.15 0-.338.016-.505.1a.644.644 0 0 0-.37.588h1Zm-.125.313c.943 0 2.94-.36 5.924-1.044l-.223-.975c-3.016.691-4.894 1.019-5.701 1.019v1Zm5.926-1.045c1.318-.306 2.383-.589 3.187-.849.781-.252 1.383-.503 1.72-.768l-.619-.786c-.18.141-.62.348-1.409.603-.766.248-1.8.523-3.106.827l.227.973Zm4.838-1.572c.302-.166.45-.196.486-.196v-1c-.307 0-.645.142-.968.32l.482.876Z"/></svg>
